public/images/marquee/discord.svg

<svg xmlns="http://www.w3.org/2000/svg" fill="none" viewBox="0 0 47 35">
  <path fill="#CFD1D7" d="M39.7875 2.90131C36.7919 1.55842 33.5795.569037 30.2208.00237703c-.0612-.01093636-.1223.01639477-.1538.07105727-.4131.7178867-.8707 1.6544257-1.1912 2.3905457-3.6125-.52838-7.2065-.52838-10.7449 0-.3205-.75248-.7948-1.672659-1.2098-2.3905457-.0315-.0528386-.0926-.08016983-.1538-.07105727C13.4105.567226 10.1981 1.55661 7.20066 2.90131c-.02594.01093-.04819.02917-.06295.05284C1.04456 11.8477-.624611 20.5227.194228 29.0901c.003705.0419.027788.082.061135.1075C4.27545 32.0819 8.16959 33.833 11.9914 34.9936c.0612.0183.126-.0036.1649-.0528.9041-1.2062 1.71-2.478 2.4009-3.8155.0408-.0783.0019-.1712-.0815-.2022-1.2782-.4737-2.4954-1.0513-3.6662-1.7073-.0926-.0528-.1001-.1822-.0149-.2442.2464-.1803.4929-.368.7281-.5575.0426-.0346.1019-.0419.152-.0201 7.6918 3.4311 16.0192 3.4311 23.6202 0 .0501-.0236.1094-.0163.1538.0183.2354.1895.4817.379.73.5593.0852.062.0796.1914-.013.2442-1.1708.6687-2.388 1.2336-3.6681 1.7055-.0834.031-.1204.1257-.0796.204.7057 1.3356 1.5116 2.6074 2.399 3.8137.0371.051.1037.0729.1649.0546 3.8404-1.1606 7.7345-2.9117 11.7546-5.796.0352-.0255.0574-.0638.0611-.1057.98-9.9049-1.6414-18.5087-6.949-26.13594-.013-.02548-.0352-.04372-.0611-.05465ZM15.7059 23.8735c-2.3158 0-4.2239-2.0772-4.2239-4.6281 0-2.551 1.8711-4.6281 4.2239-4.6281 2.3712 0 4.2609 2.0954 4.2238 4.6281 0 2.5509-1.8711 4.6281-4.2238 4.6281Zm15.6171 0c-2.3157 0-4.2238-2.0772-4.2238-4.6281 0-2.551 1.8711-4.6281 4.2238-4.6281 2.3714 0 4.261 2.0954 4.224 4.6281 0 2.5509-1.8526 4.6281-4.224 4.6281Z"/>
</svg>

<svg width="47" height="35" viewBox="0 0 47 35" fill="none" xmlns="http://www.w3.org/2000/svg">
<path d="M39.7875 2.90131C36.7919 1.55842 33.5795 0.569037 30.2208 0.00237703C30.1596 -0.00855933 30.0985 0.0187718 30.067 0.0734343C29.6539 0.791321 29.1963 1.72786 28.8758 2.46398C25.2633 1.9356 21.6693 1.9356 18.1309 2.46398C17.8104 1.7115 17.3361 0.791321 16.9211 0.0734343C16.8896 0.0205957 16.8285 -0.00673553 16.7673 0.00237703C13.4105 0.567226 10.1981 1.55661 7.20066 2.90131C7.17472 2.91224 7.15247 2.93048 7.13771 2.95415C1.04456 11.8477 -0.624611 20.5227 0.194228 29.0901C0.197933 29.132 0.222016 29.1721 0.255363 29.1976C4.27545 32.0819 8.16959 33.833 11.9914 34.9936C12.0526 35.0119 12.1174 34.99 12.1563 34.9408C13.0604 33.7346 13.8663 32.4628 14.5572 31.1253C14.598 31.047 14.5591 30.9541 14.4757 30.9231C13.1975 30.4494 11.9803 29.8718 10.8095 29.2158C10.7169 29.163 10.7094 29.0336 10.7946 28.9716C11.041 28.7913 11.2875 28.6036 11.5227 28.4141C11.5653 28.3795 11.6246 28.3722 11.6747 28.394C19.3665 31.8251 27.6939 31.8251 35.2949 28.394C35.345 28.3704 35.4043 28.3777 35.4487 28.4123C35.6841 28.6018 35.9304 28.7913 36.1787 28.9716C36.2639 29.0336 36.2583 29.163 36.1657 29.2158C34.9949 29.8845 33.7777 30.4494 32.4976 30.9213C32.4142 30.9523 32.3772 31.047 32.418 31.1253C33.1237 32.4609 33.9296 33.7327 34.817 34.939C34.8541 34.99 34.9207 35.0119 34.9819 34.9936C38.8223 33.833 42.7164 32.0819 46.7365 29.1976C46.7717 29.1721 46.7939 29.1338 46.7976 29.0919C47.7776 19.187 45.1562 10.5832 39.8486 2.95596C39.8356 2.93048 39.8134 2.91224 39.7875 2.90131ZM15.7059 23.8735C13.3901 23.8735 11.482 21.7963 11.482 19.2454C11.482 16.6944 13.3531 14.6173 15.7059 14.6173C18.0771 14.6173 19.9668 16.7127 19.9297 19.2454C19.9297 21.7963 18.0586 23.8735 15.7059 23.8735ZM31.323 23.8735C29.0073 23.8735 27.0992 21.7963 27.0992 19.2454C27.0992 16.6944 28.9703 14.6173 31.323 14.6173C33.6944 14.6173 35.584 16.7127 35.547 19.2454C35.547 21.7963 33.6944 23.8735 31.323 23.8735Z" fill="#CFD1D7"/>
</svg>
